!!!Genre:	Plyeskun
!!!Mode:	Major
!!!Edition:	2015
!!!Listening/dance:	dance
!!!Free rhythm?:	No
!!!Secondary Modes:	All major
!!!One_Mode:	yes
**kern
*I"P1
*clefG2
*k[f#]
*G:
*M2/4
*>A
=1
8g
4b
8b
=2
(16bLL
16ddJ
8ccJ)
8ccTL
8bJ
=3
8btL
8aJ
8aL
8gJ
=4
16aLL
16b
16cc
16aJJ
4b
=5
8g
4b
8b
=6
16bLL
16ddJ
8ccJ
8ccTL
8bJ
=7
8btL
8aJ
8aL
8gJ
=8
16aLL
16b
16cc
16aJJ
8g
8r
=9:|!
*>B
16ddLL
16cc
16b
16aJJ
8b
8r
=10
8dL
8dJ
8g
8r
=11
16ddLL
16cc
16b
16aJJ
8b
8r
=12
8dL
8dJ
8g
8r
=13
8gL
8f#
8e
8aJ
=14
2g
=15
8gL
8f#
8e
8aJ
=16
2g
=17
8gL
8f#
8e
8aJ
=18
8gL
8b
8a
8ccJ
=19
8bL
8dd
8cc
8eeJ
=20
8ddL
8b
8cc
8aJ
=21
2g
==
*-
